configs/network-icons/optimism_opcraft.svg

<svg width="30" height="30" viewBox="0 0 30 30" fill="none" xmlns="http://www.w3.org/2000/svg">
<g clip-path="url(#clip0_1038_3740)">
<path d="M17.0572 0H12.7714V4.28571H10.6286V2.14286H8.48573V6.42857H21.3429V2.14286H19.2V4.28571H17.0572V0Z" fill="#F3CF00"/>
<path d="M8.48573 8.57143H21.3429V10.7143H23.4857V12.8571H25.6286V25.7143H23.4857V27.8571H21.3429V30H8.48573V27.8571H6.34287V25.7143H4.20001V12.8571H6.34287V10.7143H8.48573V8.57143Z" fill="#FF0420"/>
</g>
<defs>
<clipPath id="clip0_1038_3740">
<rect width="30" height="30" fill="white"/>
</clipPath>
</defs>
</svg>

<svg xmlns="http://www.w3.org/2000/svg" fill="none" viewBox="0 0 30 30">
  <g clip-path="url(#optimism_opcraft_svg__a)">
    <path fill="#F3CF00" d="M17.057 0h-4.286v4.286H10.63V2.143H8.486v4.286h12.857V2.143H19.2v2.143h-2.143V0Z"/>
    <path fill="#FF0420" d="M8.486 8.571h12.857v2.143h2.143v2.143h2.143v12.857h-2.143v2.143h-2.143V30H8.486v-2.143H6.343v-2.143H4.2V12.857h2.143v-2.143h2.143V8.571Z"/>
  </g>
  <defs>
    <clipPath id="optimism_opcraft_svg__a">
      <path fill="#fff" d="M0 0h30v30H0z"/>
    </clipPath>
  </defs>
</svg>
